src/assets/pair.svg

<?xml version="1.0" encoding="UTF-8"?>
<svg width="49px" height="41px" viewBox="0 0 49 41" version="1.1" xmlns="http://www.w3.org/2000/svg" xmlns:xlink="http://www.w3.org/1999/xlink">
    <!-- Generator: Sketch 50 (54983) - http://www.bohemiancoding.com/sketch -->
    <title>icon: pair programming</title>
    <desc>Created with Sketch.</desc>
    <defs>
        <polygon id="path-1" points="0.670802715 0.139 32.0449973 0.139 32.0449973 17.0006 0.670802715 17.0006"></polygon>
    </defs>
    <g id="Page-1" stroke="none" stroke-width="1" fill="none" fill-rule="evenodd">
        <g id="SERVICES" transform="translate(-161.000000, -1668.000000)">
            <g id="icon:-pair-programming" transform="translate(161.000000, 1668.000000)">
                <polygon id="Fill-1" fill="#5E5CB2" points="0 41 32 41 32 9 0 9"></polygon>
                <g id="Group-9" transform="translate(4.000000, 0.000000)">
                    <path d="M28,33 L25.9724103,33 C25.9724103,26.3979289 20.6013252,21.0276631 13.9994931,21.0276631 C7.39867483,21.0276631 2.0275897,26.3979289 2.0275897,33 L0,33 C0,25.2806865 6.2804591,19 13.9994931,19 C21.7195409,19 28,25.2806865 28,33" id="Fill-2" fill="#FFFFFF"></path>
                    <path d="M45,33 L42.9724103,33 C42.9724103,26.3979289 37.6013252,21.0276631 30.9994931,21.0276631 C24.3986748,21.0276631 19.0275897,26.3979289 19.0275897,33 L17,33 C17,25.2806865 23.2804591,19 30.9994931,19 C38.7195409,19 45,25.2806865 45,33" id="Fill-4" fill="#FFFFFF"></path>
                    <g id="Group-8" transform="translate(6.000000, 0.000000)">
                        <mask id="mask-2" fill="white">
                            <use xlink:href="#path-1"></use>
                        </mask>
                        <g id="Clip-7"></g>
                        <path d="M16.3584,11.5396 C17.2404,11.5396 18.0734,11.9396 18.6434,12.6386 C19.8704,14.1396 21.6824,15.0006 23.6184,15.0006 C25.5624,15.0006 27.3824,14.1336 28.6104,12.6226 C29.8384,11.1116 30.3084,9.1246 29.9014,7.1726 C29.3774,4.6616 27.3144,2.6796 24.7694,2.2406 C22.4094,1.8316 20.1104,2.6886 18.6224,4.5286 C18.0624,5.2216 17.2374,5.6186 16.3584,5.6186 C15.4784,5.6186 14.6534,5.2216 14.0934,4.5286 C12.6054,2.6886 10.3084,1.8326 7.9464,2.2406 C5.4014,2.6786 3.3384,4.6606 2.8144,7.1726 C2.4064,9.1246 2.8774,11.1116 4.1044,12.6226 C5.3334,14.1336 7.1524,15.0006 9.0974,15.0006 C11.0334,15.0006 12.8454,14.1396 14.0724,12.6386 C14.6424,11.9396 15.4754,11.5396 16.3584,11.5396 M23.6184,17.0006 C21.0804,17.0006 18.7024,15.8716 17.0944,13.9036 C16.7124,13.4336 16.0034,13.4346 15.6214,13.9036 C14.0134,15.8716 11.6354,17.0006 9.0974,17.0006 C6.5474,17.0006 4.1624,15.8646 2.5524,13.8836 C0.9434,11.9036 0.3254,9.3086 0.8574,6.7636 C1.5474,3.4566 4.2594,0.8466 7.6064,0.2696 C10.6964,-0.2654 13.6994,0.8596 15.6484,3.2706 C16.0104,3.7186 16.7034,3.7196 17.0674,3.2716 C19.0164,0.8596 22.0164,-0.2654 25.1094,0.2696 C28.4564,0.8466 31.1684,3.4566 31.8584,6.7636 C32.3904,9.3076 31.7724,11.9026 30.1634,13.8836 C28.5534,15.8646 26.1684,17.0006 23.6184,17.0006" id="Fill-6" fill="#FFFFFF" mask="url(#mask-2)"></path>
                    </g>
                </g>
            </g>
        </g>
    </g>
</svg>

<svg width="49" height="41" xmlns="http://www.w3.org/2000/svg" xmlns:xlink="http://www.w3.org/1999/xlink"><defs><path id="a" d="M.67.139h31.375v16.862H.671z"/></defs><g fill="none" fill-rule="evenodd"><path fill="#5E5CB2" d="M0 41h32V9H0z"/><path d="M32 33h-2.028c0-6.602-5.37-11.972-11.973-11.972-6.6 0-11.971 5.37-11.971 11.972H4c0-7.72 6.28-14 14-14s14 6.28 14 14" fill="#FFF"/><path d="M49 33h-2.028c0-6.602-5.37-11.972-11.973-11.972-6.6 0-11.971 5.37-11.971 11.972H21c0-7.72 6.28-14 14-14s14 6.28 14 14" fill="#FFF"/><g transform="translate(10)"><mask id="b" fill="#fff"><use xlink:href="#a"/></mask><path d="M16.358 11.54c.882 0 1.715.4 2.285 1.099A6.401 6.401 0 0 0 23.618 15a6.409 6.409 0 0 0 4.992-2.378c1.228-1.511 1.698-3.498 1.291-5.45-.524-2.511-2.587-4.493-5.132-4.932-2.36-.41-4.659.448-6.147 2.288a2.902 2.902 0 0 1-2.264 1.09c-.88 0-1.705-.397-2.265-1.09-1.488-1.84-3.785-2.696-6.147-2.288-2.545.438-4.608 2.42-5.132 4.932-.408 1.952.063 3.939 1.29 5.45A6.41 6.41 0 0 0 9.097 15a6.401 6.401 0 0 0 4.975-2.362 2.945 2.945 0 0 1 2.286-1.1m7.26 5.462a8.395 8.395 0 0 1-6.524-3.097.946.946 0 0 0-1.473 0A8.395 8.395 0 0 1 9.097 17a8.4 8.4 0 0 1-6.545-3.117C.943 11.904.325 9.309.857 6.764 1.547 3.457 4.26.847 7.607.27c3.09-.535 6.092.59 8.041 3a.917.917 0 0 0 1.42.002C19.015.86 22.015-.265 25.108.27c3.347.577 6.06 3.187 6.75 6.494.531 2.544-.087 5.139-1.696 7.12A8.4 8.4 0 0 1 23.618 17" fill="#FFF" mask="url(#b)"/></g></g></svg>
